images/telegram-icon.svg

<svg width="16" height="14" viewBox="0 0 16 14" fill="none" xmlns="http://www.w3.org/2000/svg">
<path d="M15.7001 0.767506L13.3709 12.9273C13.3709 12.9273 13.045 13.7704 12.1497 13.366L6.77564 9.09903L6.75072 9.08645C7.47664 8.41146 13.1057 3.17035 13.3517 2.93277C13.7326 2.56484 13.4961 2.3458 13.0539 2.62373L4.73911 8.09183L1.53127 6.97412C1.53127 6.97412 1.02645 6.78817 0.977882 6.38384C0.928678 5.97884 1.54788 5.7598 1.54788 5.7598L14.6253 0.447216C14.6253 0.447216 15.7001 -0.041823 15.7001 0.767506V0.767506Z" fill="#FEFEFE"/>
</svg>

<svg width="16" height="14" fill="none" xmlns="http://www.w3.org/2000/svg"><path d="M15.7.768l-2.33 12.16s-.325.842-1.22.438L6.776 9.099l-.025-.013a3704.5 3704.5 0 006.6-6.153c.382-.368.145-.587-.297-.31l-8.315 5.47-3.208-1.119s-.505-.186-.553-.59c-.05-.405.57-.624.57-.624L14.625.447S15.7-.042 15.7.767z" fill="#FEFEFE"/></svg>
